Dominus_Dark_Funeral/22/apps/builder.svg

<svg xmlns="http://www.w3.org/2000/svg" width="24" height="24" viewBox="0 0 6.35 6.35"><defs><linearGradient id="d"><stop offset="0" stop-color="#000005"/><stop offset="1" stop-color="#501616" stop-opacity="0"/></linearGradient><linearGradient id="a"><stop offset="0" stop-color="#fff"/><stop offset="1" stop-color="#fff" stop-opacity="0"/></linearGradient><linearGradient id="b"><stop offset="0" stop-color="#fff"/><stop offset="1" stop-color="#b1b1b1"/></linearGradient><linearGradient id="c"><stop offset="0" stop-color="#5e98d7"/><stop offset="1" stop-color="#3363ac"/></linearGradient></defs><path d="M3.72.26c-.39 0-.7.3-.72.68l-.82.82a1.09 1.09 0 0 0-1 1.86v1.37h1.45V3.62a1.08 1.08 0 0 0 .32-1.09l.82-.81c.05 0 .1-.01.14-.03l.33.34-.1.1a.19.19 0 0 0-.06.14v.72c0 .1.09.18.19.18h.72c.25 0 .25-.36 0-.36h-.54v-.47l.62-.62h.47v.55c0 .24.36.24.36 0v-.73c0-.1-.08-.18-.18-.18H5c-.04 0-.1.01-.12.05l-.11.1-.34-.33a.73.73 0 0 0-.7-.91zm0 .37a.36.36 0 1 1 0 .73.36.36 0 0 1 0-.73zM1.9 2.08a.73.73 0 1 1 0 1.46.73.73 0 0 1 0-1.46zm0 .37a.36.36 0 1 0 0 .72.36.36 0 0 0 0-.72zM.81 5.35s-.36 0-.36.37v.37h2.9v-.37s0-.36-.36-.36z" fill="#e6e6e6"/></svg>

<?xml version="1.0" encoding="UTF-8" standalone="no"?>
<svg
   xmlns:dc="http://purl.org/dc/elements/1.1/"
   xmlns:cc="http://creativecommons.org/ns#"
   xmlns:rdf="http://www.w3.org/1999/02/22-rdf-syntax-ns#"
   xmlns:svg="http://www.w3.org/2000/svg"
   xmlns="http://www.w3.org/2000/svg"
   xmlns:sodipodi="http://sodipodi.sourceforge.net/DTD/sodipodi-0.dtd"
   xmlns:inkscape="http://www.inkscape.org/namespaces/inkscape"
   width="24"
   height="24"
   viewBox="0 0 6.35 6.35"
   version="1.1"
   id="svg26"
   sodipodi:docname="builder.svg"
   inkscape:version="0.92.4 (5da689c313, 2019-01-14)">
  <metadata
     id="metadata30">
    <rdf:RDF>
      <cc:Work
         rdf:about="">
        <dc:format>image/svg+xml</dc:format>
        <dc:type
           rdf:resource="http://purl.org/dc/dcmitype/StillImage" />
        <dc:title></dc:title>
      </cc:Work>
    </rdf:RDF>
  </metadata>
  <sodipodi:namedview
     pagecolor="#ffffff"
     bordercolor="#666666"
     borderopacity="1"
     objecttolerance="10"
     gridtolerance="10"
     guidetolerance="10"
     inkscape:pageopacity="0"
     inkscape:pageshadow="2"
     inkscape:window-width="1142"
     inkscape:window-height="480"
     id="namedview28"
     showgrid="false"
     inkscape:zoom="9.8333333"
     inkscape:cx="1.2711864"
     inkscape:cy="12"
     inkscape:window-x="0"
     inkscape:window-y="25"
     inkscape:window-maximized="0"
     inkscape:current-layer="svg26" />
  <defs
     id="defs22">
    <linearGradient
       id="d">
      <stop
         offset="0"
         stop-color="#000005"
         id="stop2" />
      <stop
         offset="1"
         stop-color="#501616"
         stop-opacity="0"
         id="stop4" />
    </linearGradient>
    <linearGradient
       id="a">
      <stop
         offset="0"
         stop-color="#fff"
         id="stop7" />
      <stop
         offset="1"
         stop-color="#fff"
         stop-opacity="0"
         id="stop9" />
    </linearGradient>
    <linearGradient
       id="b">
      <stop
         offset="0"
         stop-color="#fff"
         id="stop12" />
      <stop
         offset="1"
         stop-color="#b1b1b1"
         id="stop14" />
    </linearGradient>
    <linearGradient
       id="c">
      <stop
         offset="0"
         stop-color="#5e98d7"
         id="stop17" />
      <stop
         offset="1"
         stop-color="#3363ac"
         id="stop19" />
    </linearGradient>
  </defs>
  <path
     d="M 3.72,0.26 C 3.33,0.26 3.02,0.56 3,0.94 L 2.18,1.76 a 1.09,1.09 0 0 0 -1,1.86 V 4.99 H 2.63 V 3.62 A 1.08,1.08 0 0 0 2.95,2.53 L 3.77,1.72 c 0.05,0 0.1,-0.01 0.14,-0.03 l 0.33,0.34 -0.1,0.1 A 0.19,0.19 0 0 0 4.08,2.27 v 0.72 c 0,0.1 0.09,0.18 0.19,0.18 h 0.72 c 0.25,0 0.25,-0.36 0,-0.36 H 4.45 V 2.34 L 5.07,1.72 h 0.47 v 0.55 c 0,0.24 0.36,0.24 0.36,0 V 1.54 C 5.9,1.44 5.82,1.36 5.72,1.36 H 5 C 4.96,1.36 4.9,1.37 4.88,1.41 L 4.77,1.51 4.43,1.18 A 0.73,0.73 0 0 0 3.73,0.27 Z m 0,0.37 a 0.365,0.365 0 1 1 0,0.73 0.365,0.365 0 0 1 0,-0.73 z M 1.9,2.08 a 0.73,0.73 0 1 1 0,1.46 0.73,0.73 0 0 1 0,-1.46 z m 0,0.37 a 0.36,0.36 0 1 0 0,0.72 0.36,0.36 0 0 0 0,-0.72 z m -1.09,2.9 c 0,0 -0.36,0 -0.36,0.37 v 0.37 h 2.9 V 5.72 c 0,0 0,-0.36 -0.36,-0.36 z"
     id="path24"
     inkscape:connector-curvature="0"
     style="fill:#e6e6e6" />
</svg>
